public/images/icons/nayakayp-github.svg

<svg width="60" height="60" viewBox="0 0 60 60" fill="none" xmlns="http://www.w3.org/2000/svg">
<path fill-rule="evenodd" clip-rule="evenodd" d="M30 0C13.425 0 0 13.425 0 30C0 43.275 8.5875 54.4875 20.5125 58.4625C22.0125 58.725 22.575 57.825 22.575 57.0375C22.575 56.325 22.5375 53.9625 22.5375 51.45C15 52.8375 13.05 49.6125 12.45 47.925C12.1125 47.0625 10.65 44.4 9.375 43.6875C8.325 43.125 6.825 41.7375 9.3375 41.7C11.7 41.6625 13.3875 43.875 13.95 44.775C16.65 49.3125 20.9625 48.0375 22.6875 47.25C22.95 45.3 23.7375 43.9875 24.6 43.2375C17.925 42.4875 10.95 39.9 10.95 28.425C10.95 25.1625 12.1125 22.4625 14.025 20.3625C13.725 19.6125 12.675 16.5375 14.325 12.4125C14.325 12.4125 16.8375 11.625 22.575 15.4875C24.975 14.8125 27.525 14.475 30.075 14.475C32.625 14.475 35.175 14.8125 37.575 15.4875C43.3125 11.5875 45.825 12.4125 45.825 12.4125C47.475 16.5375 46.425 19.6125 46.125 20.3625C48.0375 22.4625 49.2 25.125 49.2 28.425C49.2 39.9375 42.1875 42.4875 35.5125 43.2375C36.6 44.175 37.5375 45.975 37.5375 48.7875C37.5375 52.8 37.5 56.025 37.5 57.0375C37.5 57.825 38.0625 58.7625 39.5625 58.4625C45.5179 56.4518 50.6929 52.6242 54.3592 47.5184C58.0254 42.4126 59.9982 36.2857 60 30C60 13.425 46.575 0 30 0Z" fill="#0C2C38"/>
</svg>

<svg width="60" height="60" fill="none" xmlns="http://www.w3.org/2000/svg">
    <path fill-rule="evenodd" clip-rule="evenodd"
        d="M30 0C13.425 0 0 13.425 0 30c0 13.275 8.588 24.487 20.512 28.462 1.5.263 2.063-.637 2.063-1.425 0-.712-.037-3.075-.037-5.587C15 52.837 13.05 49.612 12.45 47.925c-.337-.862-1.8-3.525-3.075-4.237-1.05-.563-2.55-1.95-.037-1.988 2.362-.038 4.05 2.175 4.612 3.075 2.7 4.538 7.012 3.263 8.738 2.475.262-1.95 1.05-3.263 1.912-4.013-6.675-.75-13.65-3.337-13.65-14.812 0-3.262 1.163-5.963 3.075-8.063-.3-.75-1.35-3.824.3-7.95 0 0 2.512-.787 8.25 3.075 2.4-.675 4.95-1.012 7.5-1.012s5.1.338 7.5 1.013c5.737-3.9 8.25-3.075 8.25-3.075 1.65 4.125.6 7.2.3 7.95 1.913 2.1 3.075 4.762 3.075 8.062 0 11.512-7.013 14.062-13.688 14.812 1.088.938 2.026 2.738 2.026 5.55 0 4.013-.038 7.238-.038 8.25 0 .788.563 1.726 2.063 1.425A30.05 30.05 0 0 0 60 30C60 13.425 46.575 0 30 0Z"
        fill="#0C2C38" />
</svg>
